app/assets/v2/images/kudos/assets/kudos-marketplace.svg

<svg
  width="58"
  height="73"
  viewBox="0 0 58 73"
  fill="none"
  xmlns="http://www.w3.org/2000/svg"
>
  <path
    d="M2 70.952H0.5V72.452H2V70.952ZM40.962 70.952V72.452H42.462V70.952H40.962ZM2 21.798V20.298H0.5V21.798H2ZM56 21.798H57.5V20.298H56V21.798ZM43.468 70.27V71.77H44.0685L44.5031 71.3556L43.468 70.27ZM48.481 65.49L49.5161 64.4044L48.481 63.4174L47.4459 64.4044L48.481 65.49ZM53.494 70.27L52.4589 71.3556L52.8935 71.77H53.494V70.27ZM9.519 21.798H8.019V23.298H9.519V21.798ZM34.127 21.798V23.298H35.627V21.798H34.127ZM23.873 21.798H22.373V23.298H23.873V21.798ZM48.481 21.798V23.298H49.981V21.798H48.481ZM48.481 14.374H46.981H48.481ZM2 72.452H40.962V69.452H2V72.452ZM42.462 70.952V21.798H39.462V70.952H42.462ZM40.962 20.298H2V23.298H40.962V20.298ZM0.5 21.798V70.952H3.5V21.798H0.5ZM42.462 70.562V21.798H39.462V70.562H42.462ZM40.962 23.298H56V20.298H40.962V23.298ZM54.5 21.798V73H57.5V21.798H54.5ZM40.962 71.77H43.468V68.77H40.962V71.77ZM44.5031 71.3556L49.5161 66.5756L47.4459 64.4044L42.4329 69.1844L44.5031 71.3556ZM47.4459 66.5756L52.4589 71.3556L54.5291 69.1844L49.5161 64.4044L47.4459 66.5756ZM53.494 71.77H56V68.77H53.494V71.77ZM21.823 0.5C14.1927 0.5 8.019 6.71842 8.019 14.374H11.019C11.019 8.35958 15.8653 3.5 21.823 3.5V0.5ZM8.019 14.374V21.798H11.019V14.374H8.019ZM9.519 23.298H34.127V20.298H9.519V23.298ZM35.627 21.798V14.374H32.627V21.798H35.627ZM35.627 14.374C35.627 6.71842 29.4533 0.5 21.823 0.5V3.5C27.7807 3.5 32.627 8.35958 32.627 14.374H35.627ZM36.177 0.5C28.5467 0.5 22.373 6.71842 22.373 14.374H25.373C25.373 8.35958 30.2193 3.5 36.177 3.5V0.5ZM22.373 14.374V21.798H25.373V14.374H22.373ZM23.873 23.298H48.481V20.298H23.873V23.298ZM49.981 21.798V14.374H46.981V21.798H49.981ZM49.981 14.374C49.981 6.71842 43.8073 0.5 36.177 0.5V3.5C42.1347 3.5 46.981 8.35958 46.981 14.374L49.981 14.374Z"
    fill="black"
  />
  <path
    class="animated"
    fill-rule="evenodd"
    clip-rule="evenodd"
    d="M22.013 35.5229L12.487 41.0229L12.474 52L21.987 57.477L31.513 51.977L31.526 41L22.013 35.5229Z"
    stroke-width="4"
  />
</svg>

<svg width="58" height="73" fill="none" xmlns="http://www.w3.org/2000/svg">
  <path
    d="M2 70.95H.5v1.5H2v-1.5zm38.96 0v1.5h1.5v-1.5h-1.5zM2 21.8v-1.5H.5v1.5H2zm54 0h1.5v-1.5H56v1.5zM43.47 70.27v1.5h.6l.43-.41-1.03-1.09zm5.01-4.78l1.04-1.09-1.04-.98-1.03.98 1.03 1.09zm5.01 4.78l-1.03 1.09.43.41h.6v-1.5zM9.52 21.8h-1.5v1.5h1.5v-1.5zm24.6 0v1.5h1.5v-1.5h-1.5zm-10.25 0h-1.5v1.5h1.5v-1.5zm24.61 0v1.5h1.5v-1.5h-1.5zm0-7.43h-1.5 1.5zM2 72.45h38.96v-3H2v3zm40.46-1.5V21.8h-3v49.15h3zm-1.5-50.65H2v3h38.96v-3zM.5 21.8v49.15h3V21.8h-3zm41.96 48.76V21.8h-3v48.76h3zm-1.5-47.26H56v-3H40.96v3zm13.54-1.5V73h3V21.8h-3zM40.96 71.77h2.5v-3h-2.5v3zm3.54-.41l5.02-4.78-2.07-2.18-5.02 4.78 2.07 2.18zm2.95-4.78l5 4.78 2.08-2.18-5.01-4.78-2.07 2.18zm6.04 5.19H56v-3h-2.5v3zM21.82.5C14.2.5 8.02 6.72 8.02 14.37h3c0-6.01 4.85-10.87 10.8-10.87v-3zM8.02 14.37v7.43h3v-7.43h-3zm1.5 8.93h24.6v-3H9.53v3zm26.1-1.5v-7.43h-3v7.43h3zm0-7.43C35.63 6.72 29.46.5 21.83.5v3c5.96 0 10.8 4.86 10.8 10.87h3zM36.19.5c-7.63 0-13.8 6.22-13.8 13.87h3c0-6.01 4.84-10.87 10.8-10.87v-3zm-13.8 13.87v7.43h3v-7.43h-3zm1.5 8.93h24.6v-3h-24.6v3zm26.1-1.5v-7.43h-3v7.43h3zm0-7.43C49.98 6.72 43.81.5 36.18.5v3c5.95 0 10.8 4.86 10.8 10.87h3z"
    fill="#405366"/>
  <path class="animated" clip-rule="evenodd" d="M22.01 35.52l-9.52 5.5L12.47 52 22 57.48l9.52-5.5.02-10.98L22 35.52z"/>
</svg>
